images/regime_icon2.svg

<svg width="13" height="15" viewBox="0 0 13 15" fill="none" xmlns="http://www.w3.org/2000/svg">
<g opacity="0.7">
<path d="M3.91737 5.51655L5.21188 7.52527L6.11952 6.48371L4.76549 4.89161C5.34579 4.04349 5.197 2.64483 4.334 1.49912C3.3222 0.145095 1.70034 -0.375685 0.718303 0.353404C-0.263736 1.08249 -0.233974 2.77875 0.777824 4.13277C1.65571 5.29336 2.95021 5.82902 3.91737 5.51655Z" fill="#030A1B"/>
<path d="M7.77171 8.43262L6.78967 9.9652L9.17037 13.6404C9.5126 14.1761 10.2417 14.31 10.7625 13.9231L10.8517 13.8487C11.3576 13.4618 11.4469 12.7328 11.0303 12.2417L7.77171 8.43262Z" fill="#030A1B"/>
<path d="M12.9209 1.60347C12.7869 1.43979 12.534 1.45467 12.415 1.61834C12.415 1.61834 10.7187 3.79073 10.2426 4.40079C10.1682 4.49006 10.0343 4.50494 9.94498 4.44542C9.8557 4.37103 9.82595 4.25199 9.90034 4.14784L11.9388 1.27612C12.0281 1.15708 12.0281 0.978533 11.9239 0.859498C11.79 0.695825 11.5371 0.710701 11.418 0.874374C11.418 0.874374 9.7218 3.04676 9.24566 3.65682C9.17126 3.74609 9.03734 3.76097 8.94807 3.70145C8.85879 3.62706 8.82903 3.50802 8.90342 3.40387C9.36468 2.76405 10.9568 0.517274 10.9568 0.517274C11.0758 0.353601 11.0163 0.115524 10.8229 0.0262475C10.689 -0.03327 10.5253 0.01137 10.4211 0.130405L8.1297 3.07652L7.83212 3.46339C7.53453 3.86513 7.40061 4.34127 7.46013 4.7579L7.59404 5.6209L1.89524 12.2273C1.47862 12.7184 1.5679 13.4474 2.0738 13.8343L2.16307 13.9087C2.66897 14.2956 3.39806 14.1617 3.75516 13.626L8.45704 6.29047L9.33493 6.17144C9.75155 6.11192 10.1682 5.84409 10.4806 5.44234L10.7782 5.05548L12.9357 2.02009C13.025 1.90105 13.025 1.7225 12.9209 1.60347Z" fill="#030A1B"/>
</g>
</svg>

<svg width="13" height="15" fill="none" xmlns="http://www.w3.org/2000/svg"><g opacity=".7" fill="#030A1B"><path d="M3.917 5.517l1.295 2.008.908-1.041-1.355-1.592c.58-.849.432-2.247-.431-3.393C3.322.145 1.7-.376.718.353c-.982.73-.952 2.426.06 3.78.878 1.16 2.172 1.696 3.14 1.384zm3.855 2.916L6.79 9.965l2.38 3.675c.343.536 1.072.67 1.592.283l.09-.074a1.113 1.113 0 00.178-1.607l-3.258-3.81z"/><path d="M12.92 1.603a.322.322 0 00-.505.015l-2.172 2.783a.23.23 0 01-.298.044c-.09-.074-.119-.193-.045-.297l2.039-2.872a.336.336 0 00-.015-.417.322.322 0 00-.506.015L9.246 3.657a.23.23 0 01-.298.044c-.09-.074-.119-.193-.045-.297.462-.64 2.054-2.887 2.054-2.887a.33.33 0 00-.134-.49.351.351 0 00-.402.103L8.13 3.077l-.298.386c-.297.402-.431.878-.372 1.295l.134.863-5.699 6.606a1.113 1.113 0 00.179 1.607l.09.075c.505.387 1.234.253 1.591-.283L8.457 6.29l.878-.119c.417-.06.833-.327 1.146-.729l.297-.387 2.158-3.035a.336.336 0 00-.015-.417z"/></g></svg>
